X:1
T: Karl Fants vals
S: Utlärd av Jonas Hjalmarsson
Z: Karin Arén
M: 3/4
L: 1/8
K: D
|: d2 dF Ad | dc cA B2 | Ac eg ec | d2 AG FE |
ED DF Ad | dc cA B2 | Ac eg ec | d4 A2 :|:
A2 A2 FA | d2 dA FA | B2 B2 GB | d2 dB GB |
BA A2 FA | d2 dA FA | AE EF GF | ED D4 :|

